X: 10542
T: BEAUS OF OAKE HILL
C:
%R: reel
B: Elias Howe "The Musician's Companion" Part 1 1842 p.54 #2
S: http://imslp.org/wiki/The_Musician's_Companion_(Howe,_Elias)
Z: 2015 John Chambers <jc:trillian.mit.edu>
M: 2/4
L: 1/16
K: D
% - - - - - - - - - - - - - - - - - - - - - - - - -
(dB) |\
AFDF A2dc | BABd e2de | fgfe fgfe | defd B2dB |\
AFDF A2dc | BABd e2de | fgfe dfag | f2d2d2 :|
|: fg |\
afdf a2gf | gfga b2ag | fgaf dfgf | gefd B2dB |\
AFDF A2dc | BABd e2de | fgfe dfag | f2d2d2 :|
% - - - - - - - - - - - - - - - - - - - - - - - - -


